X:653
T:Moray Club, The
R:Reel
B:The Athole Collection
M:C|
L:1/8
K:D
A,|D2FA dAFD|Eeed cAAc|D2FA dAFD|B,DCE D2D:|
|:A|d2fa gfed|cAeA fAeA|1 d2fa gfed|cdec d2d:|2 dbca BgAf|
cdec d2d||

